Adwaita++/devices/scalable/media-optical.svg

<svg height="256" viewBox="0 0 67.73 67.73" width="256" xmlns="http://www.w3.org/2000/svg">
  <g stroke-width="1.039383">
    <path d="m33.335855 5.2914128c-16.12291 0-29.10273 12.9798172-29.10273 29.1027342 0 16.12291 12.97982 29.102728 29.10273 29.102728 16.122913 0 29.102726-12.979818 29.102726-29.102728 0-16.122917-12.979813-29.1027342-29.102726-29.1027342zm0 16.6301332a12.472599 12.472599 0 0 1 12.472597 12.472601 12.472599 12.472599 0 0 1 -12.472597 12.472599 12.472599 12.472599 0 0 1 -12.472597-12.472599 12.472599 12.472599 0 0 1 12.472597-12.472601z" opacity=".2"/>
    <path d="m33.335868 18.243732a15.590748 15.590747 0 0 0 -15.59075 15.590746 15.590748 15.590747 0 0 0 15.59075 15.590749 15.590748 15.590747 0 0 0 15.590747-15.590749 15.590748 15.590747 0 0 0 -15.590747-15.590746zm0 9.354447c3.444309 0 6.236296 2.791992 6.236296 6.236299 0 3.444308-2.791987 6.2363-6.236296 6.2363s-6.236301-2.791992-6.236301-6.2363c0-3.444307 2.791992-6.236299 6.236301-6.236299z" fill="#848484"/>
    <path d="m33.335868 4.7317498c-16.122911 0-29.10273 12.9798172-29.10273 29.1027282 0 16.122912 12.979819 29.102728 29.10273 29.102728 16.12291 0 29.102726-12.979816 29.102726-29.102728 0-16.122911-12.979816-29.1027282-29.102726-29.1027282zm0 16.6301312a12.472599 12.472598 0 0 1 12.472597 12.472597 12.472599 12.472598 0 0 1 -12.472597 12.472599 12.472599 12.472598 0 0 1 -12.472599-12.472599 12.472599 12.472598 0 0 1 12.472599-12.472597z" fill="#e4e4e4"/>
    <path d="m33.335868 4.7317498c-16.122911 0-29.10273 12.9798172-29.10273 29.1027282 0 .118038.01185.232855.01819.349169.365388-15.80045 13.193046-28.4125137 29.084462-28.4125137 15.890059 0 28.719008 12.6098897 29.086486 28.4084527.0066-.11495.01629-.22847.01629-.345108-.000059-16.122911-12.979872-29.1027282-29.102785-29.1027282zm-12.419818 30.1380522a12.472599 12.472598 0 0 0 -.0528 1.043443 12.472599 12.472598 0 0 0 .0264.519692 12.472599 12.472598 0 0 1 .0264-.523752 12.472599 12.472598 0 0 0 12.41982 11.437275 12.472599 12.472598 0 0 0 12.419816-11.429156 12.472599 12.472598 0 0 1 .03046.615105 12.472599 12.472598 0 0 0 .02232-.619164 12.472599 12.472598 0 0 0 -.05278-1.035322 12.472599 12.472598 0 0 1 -12.419822 11.429154 12.472599 12.472598 0 0 1 -12.419821-11.437275z" fill="#fff" opacity=".2"/>
  </g>
</svg>

<?xml version="1.0" encoding="UTF-8" standalone="no"?>
<svg
   xmlns:dc="http://purl.org/dc/elements/1.1/"
   xmlns:cc="http://creativecommons.org/ns#"
   xmlns:rdf="http://www.w3.org/1999/02/22-rdf-syntax-ns#"
   xmlns:svg="http://www.w3.org/2000/svg"
   xmlns="http://www.w3.org/2000/svg"
   xmlns:sodipodi="http://sodipodi.sourceforge.net/DTD/sodipodi-0.dtd"
   xmlns:inkscape="http://www.inkscape.org/namespaces/inkscape"
   width="256"
   height="256"
   version="1.1"
   viewBox="0 0 67.73 67.73"
   id="svg29"
   sodipodi:docname="media-optical.svg"
   inkscape:version="0.92.3 (2405546, 2018-03-11)">
  <metadata
     id="metadata33">
    <rdf:RDF>
      <cc:Work
         rdf:about="">
        <dc:format>image/svg+xml</dc:format>
        <dc:type
           rdf:resource="http://purl.org/dc/dcmitype/StillImage" />
      </cc:Work>
    </rdf:RDF>
  </metadata>
  <sodipodi:namedview
     pagecolor="#ffffff"
     bordercolor="#666666"
     borderopacity="1"
     objecttolerance="10"
     gridtolerance="10"
     guidetolerance="10"
     inkscape:pageopacity="0"
     inkscape:pageshadow="2"
     inkscape:window-width="1920"
     inkscape:window-height="1009"
     id="namedview31"
     showgrid="false"
     inkscape:zoom="0.921875"
     inkscape:cx="128"
     inkscape:cy="128"
     inkscape:window-x="0"
     inkscape:window-y="34"
     inkscape:window-maximized="1"
     inkscape:current-layer="svg29" />
  <defs
     id="defs17">
    <radialGradient
       id="radialGradient972"
       cx="-16.058"
       cy="262.278"
       r="21.167"
       gradientTransform="matrix(1.902357 -.02368669 .02441152 1.9605704 57.451028 -253.50522)"
       gradientUnits="userSpaceOnUse">
      <stop
         style="stop-color:#dedbde"
         offset="0"
         id="stop2" />
      <stop
         style="stop-color:#e6e6e6"
         offset=".5"
         id="stop4" />
      <stop
         style="stop-color:#d2d2d2"
         offset="1"
         id="stop6" />
    </radialGradient>
    <linearGradient
       id="linearGradient1029"
       x1="-53.233"
       x2="-55.555"
       y1="33.45"
       y2="135.449"
       gradientTransform="matrix(.32265584 0 0 .32265584 52.88822 220.83281)"
       gradientUnits="userSpaceOnUse">
      <stop
         style="stop-color:#ffffff"
         offset="0"
         id="stop9" />
      <stop
         style="stop-color:#ffffff;stop-opacity:0"
         offset="1"
         id="stop11" />
    </linearGradient>
    <filter
       id="filter1061"
       x="-.05"
       y="-.05"
       width="1.096"
       height="1.096"
       style="color-interpolation-filters:sRGB">
      <feGaussianBlur
         stdDeviation="1.032"
         id="feGaussianBlur14" />
    </filter>
  </defs>
  <path
     inkscape:connector-curvature="0"
     style="display:inline;opacity:0.2;stroke-width:1.03938329;enable-background:new"
     d="m 33.335855,5.2914128 c -16.12291,0 -29.10273,12.9798172 -29.10273,29.1027342 0,16.12291 12.97982,29.102728 29.10273,29.102728 16.122913,0 29.102726,-12.979818 29.102726,-29.102728 0,-16.122917 -12.979813,-29.1027342 -29.102726,-29.1027342 z m 0,16.6301332 A 12.472599,12.472599 0 0 1 45.808452,34.394147 12.472599,12.472599 0 0 1 33.335855,46.866746 12.472599,12.472599 0 0 1 20.863258,34.394147 12.472599,12.472599 0 0 1 33.335855,21.921546 Z"
     id="path2" />
  <path
     inkscape:connector-curvature="0"
     style="display:inline;fill:#848484;stroke-width:1.03938317;enable-background:new"
     d="M 33.335868,18.243732 A 15.590748,15.590747 0 0 0 17.745118,33.834478 15.590748,15.590747 0 0 0 33.335868,49.425227 15.590748,15.590747 0 0 0 48.926615,33.834478 15.590748,15.590747 0 0 0 33.335868,18.243732 Z m 0,9.354447 c 3.444309,0 6.236296,2.791992 6.236296,6.236299 0,3.444308 -2.791987,6.2363 -6.236296,6.2363 -3.444309,0 -6.236301,-2.791992 -6.236301,-6.2363 0,-3.444307 2.791992,-6.236299 6.236301,-6.236299 z"
     id="path4" />
  <path
     inkscape:connector-curvature="0"
     style="display:inline;fill:#e4e4e4;stroke-width:1.03938317;enable-background:new"
     d="m 33.335868,4.7317498 c -16.122911,0 -29.10273,12.9798172 -29.10273,29.1027282 0,16.122912 12.979819,29.102728 29.10273,29.102728 16.12291,0 29.102726,-12.979816 29.102726,-29.102728 0,-16.122911 -12.979816,-29.1027282 -29.102726,-29.1027282 z m 0,16.6301312 A 12.472599,12.472598 0 0 1 45.808465,33.834478 12.472599,12.472598 0 0 1 33.335868,46.307077 12.472599,12.472598 0 0 1 20.863269,33.834478 12.472599,12.472598 0 0 1 33.335868,21.361881 Z"
     id="path6" />
  <path
     inkscape:connector-curvature="0"
     style="display:inline;opacity:0.2;fill:#ffffff;stroke-width:1.03938317;enable-background:new"
     d="m 33.335868,4.7317498 c -16.122911,0 -29.10273,12.9798172 -29.10273,29.1027282 0,0.118038 0.01185,0.232855 0.01819,0.349169 C 4.616716,18.383197 17.444374,5.7711333 33.33579,5.7711333 c 15.890059,0 28.719008,12.6098897 29.086486,28.4084527 0.0066,-0.11495 0.01629,-0.22847 0.01629,-0.345108 C 62.438507,17.711567 49.458694,4.7317498 33.335781,4.7317498 Z M 20.91605,34.869802 a 12.472599,12.472598 0 0 0 -0.0528,1.043443 12.472599,12.472598 0 0 0 0.0264,0.519692 12.472599,12.472598 0 0 1 0.0264,-0.523752 12.472599,12.472598 0 0 0 12.41982,11.437275 12.472599,12.472598 0 0 0 12.419816,-11.429156 12.472599,12.472598 0 0 1 0.03046,0.615105 12.472599,12.472598 0 0 0 0.02232,-0.619164 12.472599,12.472598 0 0 0 -0.05278,-1.035322 A 12.472599,12.472598 0 0 1 33.335864,46.307077 12.472599,12.472598 0 0 1 20.916043,34.869802 Z"
     id="path8" />
</svg>
